src/components/content/Icon/distinctive/nature.svg

<svg width="100" height="100" viewBox="0 0 100 100" fill="none" xmlns="http://www.w3.org/2000/svg">
<path d="M81.4032 36.7052C80.5001 34.0823 78.8324 31.7823 76.5813 30.0542C74.2334 28.2521 71.3345 27.1625 68.1855 26.8948C66.7147 23.2656 64.1449 20.2698 60.7407 18.2219C57.6532 16.3636 54.0293 15.3459 50.2324 15.2656V15.2594H50.2303C50.1532 15.2594 50.0761 15.2604 50.0001 15.2615C49.923 15.2615 49.847 15.2594 49.7699 15.2594H49.7678V15.2656C45.9709 15.3459 42.347 16.3636 39.2595 18.2219C35.8553 20.2698 33.2855 23.2656 31.8147 26.8948C28.6657 27.1615 25.7667 28.2511 23.4188 30.0542C21.1678 31.7823 19.5001 34.0823 18.597 36.7052C17.7688 39.1104 17.6407 41.6521 18.2251 44.0563C18.8345 46.5584 20.2188 48.8636 22.2334 50.7334C21.623 54.4354 22.2292 57.4459 24.0376 59.6844C27.4709 63.9354 34.6324 64.6854 39.7199 64.8802C39.948 64.8886 40.1542 64.9875 40.2865 65.15C40.3959 65.2844 40.4417 65.4479 40.4147 65.6104C40.4147 65.6157 40.4126 65.6209 40.4126 65.6261L38.2355 83.2886C38.223 83.3927 38.2553 83.4969 38.324 83.575C38.3928 83.6532 38.4928 83.6979 38.597 83.6979H61.4001C61.5042 83.6979 61.6042 83.6532 61.673 83.575C61.7417 83.4969 61.774 83.3927 61.7615 83.2886L59.5845 65.6261C59.5845 65.6261 59.5834 65.6157 59.5824 65.6104C59.5553 65.4479 59.6001 65.2844 59.7105 65.15C59.8428 64.9875 60.0501 64.8886 60.2782 64.8802C65.3657 64.6854 72.5272 63.9354 75.9605 59.6844C77.7688 57.4459 78.3751 54.4344 77.7647 50.7334C79.7803 48.8625 81.1636 46.5584 81.773 44.0563C82.3584 41.6521 82.2292 39.1094 81.4011 36.7052H81.4032ZM70.7595 50.1386C71.3428 53.5792 70.6449 56.549 68.6834 58.9667C66.4876 61.6719 62.8147 63.45 58.7365 63.8136C60.1438 63.1959 61.4282 62.2386 62.4636 61.0042C65.3136 57.6063 65.5188 53.2698 65.1709 50.1781C68.3897 45.7563 68.0595 37.9459 65.8605 32.8896C64.4292 29.6 62.3345 27.6031 59.9407 27.2354C58.8376 23.2479 56.5907 19.1323 53.8511 16.9156C55.2199 17.5188 56.5793 18.4063 57.8668 19.549C60.2876 21.699 62.3313 24.6688 63.474 27.6938C63.4987 27.7588 63.5414 27.8154 63.5971 27.8569C63.6529 27.8984 63.7193 27.9231 63.7886 27.9281C65.9376 28.0875 67.9626 28.9886 69.647 30.5323C71.2095 31.9656 72.4542 33.9104 73.2459 36.1552C74.0917 38.5563 74.3595 41.1823 73.998 43.5511C73.6095 46.0959 72.5282 48.2604 70.8709 49.8104C70.8268 49.8515 70.7935 49.9029 70.7743 49.96C70.755 50.0171 70.7503 50.0781 70.7605 50.1375L70.7595 50.1386ZM56.7199 65.4094L58.3657 82.9688H56.4407L55.2782 65.3407C55.2782 65.3354 55.2782 65.3292 55.2772 65.324C55.2407 65.0052 55.4095 64.6479 55.5105 64.599C56.0095 64.5709 56.5042 64.5 56.9917 64.3907C56.7751 64.6948 56.6709 65.075 56.7209 65.4104L56.7199 65.4094ZM51.4043 65.3542C51.3959 65.0427 51.424 64.6979 51.4553 64.5219C53.1001 63.7417 54.0772 57.9323 53.849 50.1052C54.4074 47.0719 54.5897 41.7948 54.3136 36.6417C54.1813 34.1792 53.9584 32.0261 53.6688 30.4156C53.2959 28.3417 52.9001 27.6323 52.5636 27.3563C52.3553 24.2854 52.0063 21.3969 51.5772 19.2063C51.3251 17.9219 51.0824 17.049 50.8511 16.4573C52.5709 17.8729 54.3636 22.3427 55.1824 27.6219C55.1943 27.6968 55.2291 27.7662 55.2821 27.8205C55.3351 27.8748 55.4036 27.9113 55.4782 27.925C56.1532 28.0469 56.824 28.7021 57.4188 29.8188C58.5563 31.9573 59.349 35.6313 59.5376 39.6469C59.7334 43.8209 59.2511 47.5698 58.2115 49.9313C58.1877 49.9853 58.1773 50.0443 58.1813 50.1031C58.5438 55.3032 57.6438 58.5365 56.8251 60.3334C55.8626 62.4459 54.4938 63.7354 53.0709 63.8719C52.4438 63.9323 52.3907 65.0834 52.4105 65.3782L53.0886 82.9688H51.6928L51.4053 65.3542H51.4043ZM46.1511 50.1063C45.924 57.9344 46.9011 63.7438 48.5449 64.5229C48.5751 64.699 48.6042 65.0438 48.5959 65.3594L48.3084 82.9698H46.9126L47.5897 65.3896C47.6095 65.0844 47.5574 63.9334 46.9303 63.8729C45.5074 63.7365 44.1386 62.4469 43.1761 60.3344C42.3574 58.5375 41.4563 55.3042 41.8199 50.1042C41.824 50.0448 41.8136 49.9865 41.7897 49.9323C40.7511 47.5709 40.2678 43.8219 40.4636 39.6479C40.6522 35.6334 41.4449 31.9594 42.5824 29.8198C43.1772 28.7021 43.848 28.0479 44.523 27.9261C44.5978 27.9128 44.6666 27.8764 44.7196 27.822C44.7727 27.7677 44.8074 27.698 44.8188 27.6229C45.6386 22.3448 47.4313 17.875 49.1501 16.4584C48.9178 17.05 48.6751 17.9229 48.424 19.2073C47.9949 21.399 47.6449 24.2865 47.4376 27.3573C47.1011 27.6323 46.7053 28.3427 46.3324 30.4167C46.0428 32.0271 45.8199 34.1802 45.6876 36.6427C45.4115 41.7959 45.5938 47.0729 46.1522 50.1063H46.1511ZM43.0095 64.3896C43.497 64.499 43.9917 64.5698 44.4907 64.5979C44.5917 64.6469 44.7595 65.0042 44.724 65.3229C44.724 65.3282 44.723 65.3344 44.723 65.3396L43.5605 82.9677H41.6355L43.2813 65.4084C43.3313 65.074 43.2272 64.6927 43.0105 64.3886L43.0095 64.3896ZM29.1303 49.8115C27.473 48.2615 26.3917 46.0969 26.0032 43.5521C25.6417 41.1834 25.9095 38.5573 26.7553 36.1563C27.547 33.9115 28.7907 31.9667 30.3542 30.5334C32.0386 28.9886 34.0636 28.0886 36.2126 27.9292C36.3542 27.9188 36.4761 27.8271 36.5272 27.6948C37.6699 24.6688 39.7136 21.7 42.1345 19.55C43.4209 18.4073 44.7813 17.5198 46.1501 16.9167C43.4105 19.1334 41.1647 23.249 40.0605 27.2365C37.6667 27.6042 35.572 29.6011 34.1407 32.8906C31.9417 37.9469 31.6115 45.7573 34.8303 50.1792C34.2063 55.7094 35.9542 59.1167 37.5376 61.0052C38.573 62.2396 39.8574 63.1969 41.2647 63.8146C37.1855 63.4511 33.5126 61.6729 31.3178 58.9677C29.3563 56.55 28.6574 53.5802 29.2417 50.1396C29.2626 50.0188 29.2209 49.8959 29.1313 49.8125L29.1303 49.8115ZM45.449 65.3969C45.4938 64.975 45.3501 64.474 45.097 64.174C44.898 63.9386 44.6845 63.8792 44.5397 63.8709C42.1074 63.7344 39.7584 62.5188 38.0959 60.5365C35.3688 57.2854 35.2167 53.0781 35.5699 50.1209C35.5813 50.0271 35.5553 49.9334 35.499 49.8584C34.0907 47.9865 33.2688 45.1823 33.1855 41.9625C33.1074 38.9323 33.699 35.7313 34.8084 33.1813C36.1792 30.0292 38.1605 28.1636 40.3855 27.9281C40.4589 27.9202 40.5282 27.8903 40.5843 27.8424C40.6404 27.7944 40.6808 27.7307 40.7001 27.6594C41.5063 24.6261 42.9459 21.6542 44.649 19.5031C45.7282 18.1406 46.8761 17.1469 48.0147 16.5709C46.2542 18.6636 44.8324 22.9657 44.1365 27.2698C43.323 27.5219 42.5855 28.2625 41.9397 29.4761C39.5751 33.9198 38.748 44.6969 41.0865 50.1417C40.7292 55.4427 41.6636 58.7729 42.5136 60.6365C43.5647 62.9407 45.1042 64.3729 46.7522 64.5865C46.8115 64.7188 46.8834 65.0375 46.8626 65.3521L46.1834 82.9698H44.2907L45.449 65.3979V65.3969ZM53.1376 65.3407C53.1178 65.0354 53.1897 64.7177 53.249 64.5854C54.897 64.3729 56.4376 62.9407 57.4876 60.6354C58.3365 58.7719 59.2709 55.4427 58.9147 50.1406C61.2532 44.6959 60.4261 33.9188 58.0615 29.475C57.4157 28.2615 56.6782 27.5209 55.8647 27.2688C55.3699 24.2011 54.5428 21.3156 53.5272 19.1219C53.0334 18.0542 52.5147 17.2 51.9845 16.5677C53.123 17.1438 54.272 18.1375 55.3511 19.5011C57.0542 21.6521 58.4938 24.625 59.3001 27.6573C59.3386 27.8032 59.4636 27.9104 59.6147 27.9261C61.8407 28.1604 63.8209 30.0261 65.1918 33.1792C66.3011 35.7292 66.8928 38.9302 66.8147 41.9604C66.7313 45.1813 65.9105 47.9854 64.5011 49.8563C64.4449 49.9313 64.4188 50.025 64.4303 50.1188C64.7834 53.0761 64.6313 57.2834 61.9043 60.5344C60.2418 62.5167 57.8928 63.7323 55.4605 63.8688C55.3167 63.8771 55.1022 63.9365 54.9032 64.1719C54.6501 64.4719 54.5063 64.9729 54.5511 65.3948L55.7095 82.9667H53.8167L53.1376 65.3386V65.3407ZM24.6053 59.2271C22.9032 57.1198 22.3584 54.2375 22.9855 50.6625C23.0074 50.5386 22.9636 50.4136 22.8709 50.3292C20.8845 48.5334 19.523 46.3052 18.9334 43.8844C18.3813 41.6157 18.5032 39.2156 19.2855 36.9427C20.1417 34.4552 21.7251 32.274 23.8615 30.6334C26.1532 28.875 29.0001 27.8271 32.0949 27.6052C32.1637 27.6003 32.2296 27.5759 32.2851 27.535C32.3406 27.4941 32.3834 27.4382 32.4084 27.374C33.8042 23.8 36.3032 20.8521 39.6345 18.8469C41.3115 17.8375 43.1553 17.0875 45.1001 16.6094C43.9188 17.2167 42.7553 18.0198 41.648 19.0042C39.1626 21.2125 37.1365 24.1229 35.9251 27.2219C33.698 27.4386 31.6053 28.3948 29.8595 29.9959C28.2084 31.5104 26.897 33.5563 26.0657 35.9136C25.1803 38.425 24.9022 41.1771 25.2803 43.6615C25.6824 46.2979 26.7907 48.5573 28.4886 50.2084C27.9365 53.7365 28.7157 56.9209 30.749 59.4261C32.5709 61.6719 35.3449 63.3094 38.523 64.0938C33.7115 63.8261 27.5907 62.924 24.6042 59.2261L24.6053 59.2271ZM41.1365 65.7229C41.1959 65.3532 41.0959 64.9875 40.8532 64.6896C40.7907 64.6125 40.7188 64.5427 40.6428 64.4813C41.123 64.5396 41.6084 64.5792 42.099 64.599C42.2303 64.6042 42.3365 64.7104 42.3876 64.774C42.5136 64.9282 42.5834 65.1469 42.5584 65.3073L42.5553 65.3313L40.9022 82.9698H39.0105L41.1365 65.724V65.7229ZM49.7667 82.9688H49.0376L49.3251 65.375C49.3636 63.9844 49.0282 63.9084 48.9011 63.8792C48.6022 63.8115 47.9626 63.0052 47.4626 60.4157C47.1115 58.599 46.7261 55.3323 46.8813 50.0886C46.8813 50.0625 46.8803 50.0365 46.8751 50.0115C46.3209 47.0365 46.1407 41.8042 46.4147 36.6813C46.5449 34.249 46.7647 32.1271 47.049 30.5448C47.4865 28.1167 47.9126 27.9084 47.9313 27.9011C47.9933 27.8745 48.0467 27.8314 48.0856 27.7765C48.1246 27.7215 48.1476 27.6568 48.1522 27.5896C48.348 24.6146 48.6803 21.7802 49.0897 19.6063C49.4563 17.6584 49.7855 16.7552 50.0011 16.3386C50.2168 16.7552 50.5459 17.6573 50.9126 19.6063C51.322 21.7802 51.6543 24.6156 51.8501 27.5896C51.8595 27.7271 51.9449 27.8469 52.0709 27.9011C52.0886 27.9084 52.5157 28.1167 52.9532 30.5448C53.2376 32.1261 53.4574 34.2479 53.5876 36.6813C53.8615 41.8032 53.6813 47.0354 53.1272 50.0115C53.122 50.0375 53.1199 50.0625 53.1209 50.0886C53.2761 55.3313 52.8897 58.5979 52.5397 60.4157C52.0397 63.0052 51.4001 63.8115 51.1011 63.8792C50.9751 63.9084 50.6386 63.9844 50.6772 65.3709L50.9647 82.9688H49.7688H49.7667ZM60.9897 82.9688H59.098L57.4449 65.3302C57.4449 65.3219 57.4428 65.3146 57.4417 65.3063C57.4157 65.1469 57.4865 64.9282 57.6126 64.7729C57.6647 64.7104 57.7699 64.6032 57.9011 64.5979C58.3917 64.5782 58.8772 64.5386 59.3574 64.4802C59.2803 64.5417 59.2095 64.6115 59.147 64.6886C58.9053 64.9854 58.8043 65.3521 58.8636 65.7219L60.9897 82.9677V82.9688ZM81.0657 43.8844C80.4761 46.3052 79.1147 48.5334 77.1282 50.3292C77.0355 50.4136 76.9918 50.5396 77.0136 50.6625C77.6407 54.2386 77.0959 57.1198 75.3938 59.2271C72.4063 62.925 66.2865 63.8271 61.4751 64.0948C64.6532 63.3104 67.4272 61.6719 69.249 59.4271C71.2824 56.9219 72.0615 53.7375 71.5095 50.2094C73.2074 48.5573 74.3157 46.299 74.7178 43.6625C75.097 41.1771 74.8178 38.4261 73.9324 35.9146C73.1011 33.5573 71.7897 31.5115 70.1386 29.9969C68.3928 28.3959 66.3001 27.4396 64.073 27.2229C62.8615 24.124 60.8355 21.2136 58.3501 19.0052C57.2428 18.0209 56.0793 17.2177 54.898 16.6104C56.8428 17.0896 58.6865 17.8396 60.3636 18.8479C63.6949 20.8521 66.1928 23.8011 67.5897 27.375C67.6147 27.4393 67.6575 27.4951 67.713 27.536C67.7685 27.577 67.8344 27.6013 67.9032 27.6063C70.998 27.8281 73.8449 28.875 76.1365 30.6344C78.274 32.275 79.8563 34.4563 80.7126 36.9438C81.4949 39.2167 81.6167 41.6167 81.0647 43.8854L81.0657 43.8844Z" fill="#0B301A"/>
</svg>

<svg xmlns="http://www.w3.org/2000/svg" width="100" height="100" fill="none" viewBox="0 0 100 100"><path fill="#0b301a" d="M81.403 36.705c-.903-2.623-2.57-4.923-4.822-6.65-2.348-1.803-5.246-2.892-8.395-3.16-1.471-3.63-4.041-6.625-7.445-8.673-3.088-1.858-6.712-2.876-10.509-2.956v-.007h-.002l-.23.002-.23-.002h-.002v.007c-3.797.08-7.421 1.098-10.508 2.956-3.405 2.048-5.974 5.044-7.445 8.673-3.15.267-6.048 1.356-8.396 3.16-2.251 1.727-3.919 4.027-4.822 6.65-.828 2.405-.956 4.947-.372 7.351.61 2.502 1.994 4.808 4.008 6.677-.61 3.702-.004 6.713 1.805 8.951 3.433 4.251 10.594 5.001 15.682 5.196a.76.76 0 0 1 .566.27c.11.134.156.298.129.46l-.002.016-2.177 17.663a.364.364 0 0 0 .361.41H61.4a.364.364 0 0 0 .361-.41l-2.177-17.663s0-.01-.002-.016a.57.57 0 0 1 .129-.46.76.76 0 0 1 .567-.27c5.088-.195 12.25-.945 15.682-5.196 1.809-2.238 2.415-5.25 1.805-8.95 2.015-1.872 3.399-4.176 4.008-6.678.585-2.404.456-4.947-.372-7.35zM70.76 50.14c.584 3.44-.114 6.41-2.076 8.828-2.195 2.705-5.868 4.483-9.947 4.847a10.3 10.3 0 0 0 3.728-2.81c2.85-3.398 3.055-7.734 2.707-10.826 3.219-4.422 2.888-12.232.69-17.288-1.432-3.29-3.527-5.287-5.92-5.655-1.103-3.987-3.35-8.103-6.09-10.32 1.369.604 2.728 1.491 4.016 2.634 2.42 2.15 4.464 5.12 5.607 8.145a.37.37 0 0 0 .315.234c2.149.16 4.174 1.06 5.858 2.604 1.563 1.434 2.807 3.378 3.599 5.623.846 2.401 1.114 5.027.752 7.396-.389 2.545-1.47 4.71-3.127 6.26a.36.36 0 0 0-.11.327zm-14.04 15.27 1.647 17.56H56.44L55.278 65.34v-.017c-.037-.319.132-.676.233-.725a9 9 0 0 0 1.48-.208c-.216.304-.32.684-.27 1.02zm-5.315-.055c-.008-.311.02-.656.051-.832 1.645-.78 2.622-6.59 2.394-14.417.558-3.033.74-8.31.465-13.463-.133-2.463-.356-4.616-.645-6.226-.373-2.074-.769-2.784-1.105-3.06-.209-3.07-.558-5.96-.987-8.15-.252-1.284-.495-2.157-.726-2.749 1.72 1.416 3.513 5.886 4.331 11.165a.37.37 0 0 0 .296.303c.675.122 1.346.777 1.94 1.894 1.138 2.138 1.931 5.812 2.12 9.828.195 4.174-.287 7.923-1.326 10.284a.4.4 0 0 0-.03.172c.362 5.2-.538 8.433-1.357 10.23-.962 2.113-2.331 3.402-3.754 3.539-.627.06-.68 1.211-.66 1.506l.678 17.59h-1.396l-.288-17.614m-5.253-15.248c-.227 7.828.75 13.638 2.394 14.417.03.176.06.52.05.836l-.287 17.61h-1.395l.677-17.58c.02-.305-.033-1.456-.66-1.516-1.423-.136-2.791-1.426-3.754-3.539-.819-1.797-1.72-5.03-1.356-10.23a.36.36 0 0 0-.03-.172c-1.039-2.361-1.522-6.11-1.326-10.284.188-4.015.98-7.689 2.118-9.828.595-1.118 1.266-1.772 1.941-1.894a.36.36 0 0 0 .296-.303c.82-5.278 2.612-9.748 4.331-11.165-.232.592-.475 1.465-.726 2.75-.43 2.191-.78 5.079-.986 8.15-.337.274-.733.985-1.106 3.059-.29 1.61-.512 3.763-.644 6.226-.277 5.153-.094 10.43.464 13.463M43.01 64.39q.733.165 1.482.208c.1.049.269.406.233.725l-.001.017-1.163 17.628h-1.925l1.646-17.56c.05-.334-.054-.715-.27-1.02zM29.13 49.812c-1.657-1.55-2.738-3.715-3.127-6.26-.361-2.369-.093-4.995.752-7.396.792-2.245 2.036-4.19 3.6-5.623 1.684-1.544 3.709-2.444 5.858-2.604a.37.37 0 0 0 .314-.234c1.143-3.026 3.187-5.995 5.608-8.145 1.286-1.143 2.646-2.03 4.015-2.633-2.74 2.216-4.985 6.332-6.09 10.32-2.393.367-4.488 2.364-5.92 5.654-2.198 5.056-2.529 12.866.69 17.288-.624 5.53 1.124 8.938 2.708 10.826a10.3 10.3 0 0 0 3.727 2.81c-4.08-.364-7.752-2.142-9.947-4.847-1.962-2.418-2.66-5.388-2.076-8.828a.36.36 0 0 0-.11-.328zM45.45 65.397c.045-.422-.099-.923-.352-1.223-.199-.235-.413-.295-.557-.303-2.433-.137-4.782-1.352-6.444-3.335-2.727-3.25-2.88-7.458-2.526-10.415a.36.36 0 0 0-.071-.263c-1.408-1.871-2.23-4.676-2.314-7.895-.078-3.03.514-6.232 1.623-8.782 1.371-3.152 3.352-5.017 5.578-5.253a.37.37 0 0 0 .314-.269c.806-3.033 2.246-6.005 3.949-8.156 1.08-1.362 2.227-2.356 3.366-2.932-1.76 2.093-3.183 6.395-3.879 10.699-.813.252-1.55.992-2.196 2.206-2.365 4.444-3.192 15.22-.853 20.666-.358 5.3.577 8.63 1.427 10.494 1.05 2.305 2.59 3.737 4.238 3.95.06.133.131.451.11.766l-.679 17.618h-1.892zm7.689-.056c-.02-.306.052-.623.111-.756 1.648-.212 3.189-1.644 4.239-3.95.849-1.863 1.783-5.192 1.427-10.494 2.338-5.445 1.511-16.222-.853-20.666-.646-1.213-1.384-1.954-2.197-2.206-.495-3.068-1.322-5.953-2.338-8.147-.494-1.068-1.012-1.922-1.543-2.554 1.139.576 2.288 1.57 3.367 2.933 1.703 2.151 3.143 5.124 3.95 8.156a.36.36 0 0 0 .314.27c2.226.233 4.206 2.1 5.577 5.252 1.11 2.55 1.7 5.751 1.623 8.781-.084 3.221-.904 6.025-2.314 7.896a.36.36 0 0 0-.07.263c.352 2.957.2 7.164-2.527 10.415-1.662 1.983-4.011 3.198-6.443 3.335-.144.008-.359.068-.558.303-.253.3-.397.8-.352 1.223l1.158 17.572h-1.892l-.68-17.628zm-28.533-6.114c-1.702-2.107-2.247-4.99-1.62-8.564a.36.36 0 0 0-.114-.334c-1.986-1.796-3.348-4.024-3.938-6.445-.552-2.268-.43-4.668.352-6.941.857-2.488 2.44-4.669 4.576-6.31 2.292-1.758 5.14-2.806 8.234-3.028a.36.36 0 0 0 .313-.231c1.396-3.574 3.895-6.522 7.227-8.527a19.7 19.7 0 0 1 5.465-2.238 16.8 16.8 0 0 0-3.452 2.395 21.8 21.8 0 0 0-5.723 8.218c-2.227.217-4.32 1.173-6.065 2.774-1.652 1.514-2.963 3.56-3.794 5.918-.886 2.511-1.164 5.263-.786 7.747.402 2.637 1.51 4.896 3.209 6.547-.553 3.529.227 6.713 2.26 9.218 1.822 2.246 4.596 3.883 7.774 4.668-4.812-.268-10.932-1.17-13.919-4.868zm16.531 6.496c.06-.37-.04-.736-.283-1.033a1.4 1.4 0 0 0-.21-.209q.72.088 1.456.118c.131.005.238.111.289.175.126.154.195.373.17.533l-.003.024-1.653 17.639H39.01l2.127-17.246zm8.63 17.246h-.728l.287-17.594c.039-1.39-.297-1.467-.424-1.496-.299-.067-.938-.874-1.438-3.463-.352-1.817-.737-5.084-.582-10.327a.4.4 0 0 0-.006-.078c-.554-2.975-.734-8.207-.46-13.33.13-2.432.35-4.554.634-6.136.438-2.428.864-2.637.882-2.644a.37.37 0 0 0 .221-.311c.196-2.975.528-5.81.938-7.984.366-1.948.695-2.85.911-3.267.216.416.545 1.318.912 3.267.409 2.174.741 5.01.937 7.984.01.137.095.257.22.311.019.007.446.216.883 2.644.285 1.581.504 3.703.635 6.136.273 5.122.093 10.354-.46 13.33a.3.3 0 0 0-.007.078c.155 5.242-.231 8.509-.581 10.327-.5 2.59-1.14 3.396-1.439 3.463-.126.03-.462.105-.424 1.492l.288 17.598h-1.198m11.224 0h-1.892L57.445 65.33l-.003-.024c-.026-.16.044-.378.17-.533.053-.063.158-.17.29-.175q.735-.03 1.455-.118a1.4 1.4 0 0 0-.21.209 1.3 1.3 0 0 0-.283 1.033l2.126 17.246m20.076-39.085c-.59 2.421-1.951 4.65-3.938 6.445a.37.37 0 0 0-.114.334c.627 3.576.082 6.457-1.62 8.564-2.988 3.698-9.108 4.6-13.919 4.868 3.178-.785 5.952-2.423 7.774-4.668 2.033-2.505 2.813-5.69 2.26-9.218 1.698-1.652 2.807-3.91 3.209-6.547.379-2.485.1-5.236-.786-7.747-.83-2.358-2.142-4.403-3.793-5.918-1.746-1.601-3.839-2.557-6.066-2.774a21.8 21.8 0 0 0-5.723-8.218 16.8 16.8 0 0 0-3.452-2.395 19.8 19.8 0 0 1 5.466 2.238c3.33 2.004 5.829 4.953 7.226 8.527a.36.36 0 0 0 .313.231c3.095.222 5.942 1.269 8.233 3.028 2.138 1.641 3.72 3.822 4.577 6.31.782 2.273.904 4.673.352 6.941"/></svg>
